assets/1. Faces/Relieved face/Color/relieved_face_color.svg

<svg width="100%" height="100%" viewBox="0 0 32 32" fill="none" xmlns="http://www.w3.org/2000/svg">
<g clip-path="url(#clip0_31_69)">
<path d="M15.9989 29.9978C25.3333 29.9978 29.9978 23.7303 29.9978 15.9989C29.9978 8.26751 25.3333 2 15.9989 2C6.66443 2 2 8.26751 2 15.9989C2 23.7303 6.66443 29.9978 15.9989 29.9978Z" fill="url(#paint0_radial_31_69)"/>
<path d="M15.9989 29.9978C25.3333 29.9978 29.9978 23.7303 29.9978 15.9989C29.9978 8.26751 25.3333 2 15.9989 2C6.66443 2 2 8.26751 2 15.9989C2 23.7303 6.66443 29.9978 15.9989 29.9978Z" fill="url(#paint1_radial_31_69)"/>
<path d="M15.9989 29.9978C25.3333 29.9978 29.9978 23.7303 29.9978 15.9989C29.9978 8.26751 25.3333 2 15.9989 2C6.66443 2 2 8.26751 2 15.9989C2 23.7303 6.66443 29.9978 15.9989 29.9978Z" fill="url(#paint2_radial_31_69)"/>
<path d="M15.9989 29.9978C25.3333 29.9978 29.9978 23.7303 29.9978 15.9989C29.9978 8.26751 25.3333 2 15.9989 2C6.66443 2 2 8.26751 2 15.9989C2 23.7303 6.66443 29.9978 15.9989 29.9978Z" fill="url(#paint3_radial_31_69)" fill-opacity="0.6"/>
<path d="M15.9989 29.9978C25.3333 29.9978 29.9978 23.7303 29.9978 15.9989C29.9978 8.26751 25.3333 2 15.9989 2C6.66443 2 2 8.26751 2 15.9989C2 23.7303 6.66443 29.9978 15.9989 29.9978Z" fill="url(#paint4_radial_31_69)"/>
<path d="M15.9989 29.9978C25.3333 29.9978 29.9978 23.7303 29.9978 15.9989C29.9978 8.26751 25.3333 2 15.9989 2C6.66443 2 2 8.26751 2 15.9989C2 23.7303 6.66443 29.9978 15.9989 29.9978Z" fill="url(#paint5_radial_31_69)"/>
<path d="M15.9989 29.9978C25.3333 29.9978 29.9978 23.7303 29.9978 15.9989C29.9978 8.26751 25.3333 2 15.9989 2C6.66443 2 2 8.26751 2 15.9989C2 23.7303 6.66443 29.9978 15.9989 29.9978Z" fill="url(#paint6_radial_31_69)"/>
<path d="M15.9989 29.9978C25.3333 29.9978 29.9978 23.7303 29.9978 15.9989C29.9978 8.26751 25.3333 2 15.9989 2C6.66443 2 2 8.26751 2 15.9989C2 23.7303 6.66443 29.9978 15.9989 29.9978Z" fill="url(#paint7_radial_31_69)"/>
<path d="M7 17C7 17 8 18 10 18C12 18 13 17 13 17" stroke="url(#paint8_linear_31_69)" stroke-width="2" stroke-linecap="round" stroke-linejoin="round"/>
<path d="M19 17C19 17 20 18 22 18C24 18 25 17 25 17" stroke="url(#paint9_linear_31_69)" stroke-width="2" stroke-linecap="round" stroke-linejoin="round"/>
<path d="M6.5 10.5C6.83333 9.5 8.1 7.5 10.5 7.5" stroke="url(#paint10_linear_31_69)" stroke-linecap="round" stroke-linejoin="round"/>
<path d="M25.5 10.5C25.1667 9.5 23.9 7.5 21.5 7.5" stroke="url(#paint11_linear_31_69)" stroke-linecap="round" stroke-linejoin="round"/>
<path fill-rule="evenodd" clip-rule="evenodd" d="M10.4001 23.2C10.8419 22.8686 11.4687 22.9582 11.8001 23.4C12.1094 23.8125 13.5118 25 16.0001 25C18.4883 25 19.8907 23.8125 20.2001 23.4C20.5314 22.9582 21.1582 22.8686 21.6001 23.2C22.0419 23.5314 22.1314 24.1582 21.8001 24.6C21.1094 25.5208 19.1118 27 16.0001 27C12.8883 27 10.8907 25.5208 10.2001 24.6C9.86869 24.1582 9.95823 23.5314 10.4001 23.2Z" fill="url(#paint12_radial_31_69)"/>
</g>
<defs>
<radialGradient id="paint0_radial_31_69" cx="0" cy="0" r="1" gradientUnits="userSpaceOnUse" gradientTransform="translate(25.5 9) rotate(132.839) scale(37.5033)">
<stop stop-color="#FFF478"/>
<stop offset="0.474827" stop-color="#FFB02E"/>
<stop offset="1" stop-color="#F70A8D"/>
</radialGradient>
<radialGradient id="paint1_radial_31_69" cx="0" cy="0" r="1" gradientUnits="userSpaceOnUse" gradientTransform="translate(25.5 9) rotate(131.878) scale(38.9487)">
<stop stop-color="#FFF478"/>
<stop offset="0.474827" stop-color="#FFB02E"/>
<stop offset="1" stop-color="#F70A8D"/>
</radialGradient>
<radialGradient id="paint2_radial_31_69" cx="0" cy="0" r="1" gradientUnits="userSpaceOnUse" gradientTransform="translate(16 12.5) rotate(101.31) scale(17.8466 22.8581)">
<stop offset="0.787821" stop-color="#F59639" stop-opacity="0"/>
<stop offset="0.972509" stop-color="#FF7DCE"/>
</radialGradient>
<radialGradient id="paint3_radial_31_69" cx="0" cy="0" r="1" gradientUnits="userSpaceOnUse" gradientTransform="translate(18 14) rotate(135) scale(41.0122)">
<stop offset="0.314853" stop-opacity="0"/>
<stop offset="1"/>
</radialGradient>
<radialGradient id="paint4_radial_31_69" cx="0" cy="0" r="1" gradientUnits="userSpaceOnUse" gradientTransform="translate(16 17) rotate(77.692) scale(28.1469)">
<stop offset="0.507903" stop-color="#7D6133" stop-opacity="0"/>
<stop offset="1" stop-color="#715B32"/>
</radialGradient>
<radialGradient id="paint5_radial_31_69" cx="0" cy="0" r="1" gradientUnits="userSpaceOnUse" gradientTransform="translate(16.5 16.5) rotate(55.7131) scale(13.3135 9.65032)">
<stop stop-color="#FFB849"/>
<stop offset="1" stop-color="#FFB847" stop-opacity="0"/>
</radialGradient>
<radialGradient id="paint6_radial_31_69" cx="0" cy="0" r="1" gradientUnits="userSpaceOnUse" gradientTransform="translate(20.5 18) rotate(9.86581) scale(11.6726)">
<stop stop-color="#FFA64B"/>
<stop offset="0.900412" stop-color="#FFAE46" stop-opacity="0"/>
</radialGradient>
<radialGradient id="paint7_radial_31_69" cx="0" cy="0" r="1" gradientUnits="userSpaceOnUse" gradientTransform="translate(17.5 15) rotate(43.9708) scale(59.0529)">
<stop offset="0.185425" stop-opacity="0"/>
<stop offset="1" stop-opacity="0.4"/>
</radialGradient>
<linearGradient id="paint8_linear_31_69" x1="11.2" y1="16.75" x2="10.9649" y2="18.1608" gradientUnits="userSpaceOnUse">
<stop stop-color="#52383E"/>
<stop offset="1" stop-color="#432A35"/>
</linearGradient>
<linearGradient id="paint9_linear_31_69" x1="23.2" y1="16.75" x2="22.9649" y2="18.1608" gradientUnits="userSpaceOnUse">
<stop stop-color="#52383E"/>
<stop offset="1" stop-color="#432A35"/>
</linearGradient>
<linearGradient id="paint10_linear_31_69" x1="6.83333" y1="11.4" x2="6.83333" y2="9.6" gradientUnits="userSpaceOnUse">
<stop offset="0.0299084" stop-color="#524049"/>
<stop offset="1" stop-color="#4A2C42"/>
</linearGradient>
<linearGradient id="paint11_linear_31_69" x1="25.1667" y1="11.4" x2="25.1667" y2="9.6" gradientUnits="userSpaceOnUse">
<stop offset="0.0299084" stop-color="#524049"/>
<stop offset="1" stop-color="#4A2C42"/>
</linearGradient>
<radialGradient id="paint12_radial_31_69" cx="0" cy="0" r="1" gradientUnits="userSpaceOnUse" gradientTransform="translate(16.0001 22) rotate(90) scale(5.5 8.41855)">
<stop offset="0.34763" stop-color="#241A1A"/>
<stop offset="0.628228" stop-color="#57444A"/>
<stop offset="1" stop-color="#4E2553"/>
<stop offset="1" stop-color="#502A56"/>
</radialGradient>
<clipPath id="clip0_31_69">
<rect width="32" height="32" fill="white"/>
</clipPath>
</defs>
</svg>

<svg width="100%" height="100%" viewBox="0 0 32 32" xmlns="http://www.w3.org/2000/svg"><g clip-path="url(#a)"><path fill="url(#b)" d="M15.999 29.998c9.334 0 13.999-6.268 13.999-14 0-7.73-4.665-13.998-14-13.998C6.665 2 2 8.268 2 15.999s4.664 13.999 13.999 13.999"/><path fill="url(#c)" d="M15.999 29.998c9.334 0 13.999-6.268 13.999-14 0-7.73-4.665-13.998-14-13.998C6.665 2 2 8.268 2 15.999s4.664 13.999 13.999 13.999"/><path fill="url(#d)" d="M15.999 29.998c9.334 0 13.999-6.268 13.999-14 0-7.73-4.665-13.998-14-13.998C6.665 2 2 8.268 2 15.999s4.664 13.999 13.999 13.999"/><path fill="url(#e)" fill-opacity=".6" d="M15.999 29.998c9.334 0 13.999-6.268 13.999-14 0-7.73-4.665-13.998-14-13.998C6.665 2 2 8.268 2 15.999s4.664 13.999 13.999 13.999"/><path fill="url(#f)" d="M15.999 29.998c9.334 0 13.999-6.268 13.999-14 0-7.73-4.665-13.998-14-13.998C6.665 2 2 8.268 2 15.999s4.664 13.999 13.999 13.999"/><path fill="url(#g)" d="M15.999 29.998c9.334 0 13.999-6.268 13.999-14 0-7.73-4.665-13.998-14-13.998C6.665 2 2 8.268 2 15.999s4.664 13.999 13.999 13.999"/><path fill="url(#h)" d="M15.999 29.998c9.334 0 13.999-6.268 13.999-14 0-7.73-4.665-13.998-14-13.998C6.665 2 2 8.268 2 15.999s4.664 13.999 13.999 13.999"/><path fill="url(#i)" d="M15.999 29.998c9.334 0 13.999-6.268 13.999-14 0-7.73-4.665-13.998-14-13.998C6.665 2 2 8.268 2 15.999s4.664 13.999 13.999 13.999"/><path stroke="url(#j)" stroke-linecap="round" stroke-linejoin="round" stroke-width="2" d="M7 17s1 1 3 1 3-1 3-1"/><path stroke="url(#k)" stroke-linecap="round" stroke-linejoin="round" stroke-width="2" d="M19 17s1 1 3 1 3-1 3-1"/><path stroke="url(#l)" stroke-linecap="round" stroke-linejoin="round" d="M6.5 10.5c.333-1 1.6-3 4-3"/><path stroke="url(#m)" stroke-linecap="round" stroke-linejoin="round" d="M25.5 10.5c-.333-1-1.6-3-4-3"/><path fill="url(#n)" fill-rule="evenodd" d="M10.4 23.2a1 1 0 0 1 1.4.2c.31.413 1.712 1.6 4.2 1.6s3.89-1.187 4.2-1.6a1 1 0 1 1 1.6 1.2c-.69.92-2.688 2.4-5.8 2.4s-5.11-1.48-5.8-2.4a1 1 0 0 1 .2-1.4" clip-rule="evenodd"/></g><defs><radialGradient id="b" cx="0" cy="0" r="1" gradientTransform="rotate(132.839 10.786 10.065)scale(37.5033)" gradientUnits="userSpaceOnUse"><stop stop-color="#FFF478"/><stop offset=".475" stop-color="#FFB02E"/><stop offset="1" stop-color="#F70A8D"/></radialGradient><radialGradient id="c" cx="0" cy="0" r="1" gradientTransform="rotate(131.878 10.74 10.193)scale(38.9487)" gradientUnits="userSpaceOnUse"><stop stop-color="#FFF478"/><stop offset=".475" stop-color="#FFB02E"/><stop offset="1" stop-color="#F70A8D"/></radialGradient><radialGradient id="d" cx="0" cy="0" r="1" gradientTransform="rotate(101.31 2.876 12.808)scale(17.8466 22.8581)" gradientUnits="userSpaceOnUse"><stop offset=".788" stop-color="#F59639" stop-opacity="0"/><stop offset=".973" stop-color="#FF7DCE"/></radialGradient><radialGradient id="e" cx="0" cy="0" r="1" gradientTransform="matrix(-29 29 -29 -29 18 14)" gradientUnits="userSpaceOnUse"><stop offset=".315" stop-opacity="0"/><stop offset="1"/></radialGradient><radialGradient id="f" cx="0" cy="0" r="1" gradientTransform="rotate(77.692 -2.555 18.434)scale(28.1469)" gradientUnits="userSpaceOnUse"><stop offset=".508" stop-color="#7D6133" stop-opacity="0"/><stop offset="1" stop-color="#715B32"/></radialGradient><radialGradient id="g" cx="0" cy="0" r="1" gradientTransform="rotate(55.713 -7.36 23.86)scale(13.3135 9.65032)" gradientUnits="userSpaceOnUse"><stop stop-color="#FFB849"/><stop offset="1" stop-color="#FFB847" stop-opacity="0"/></radialGradient><radialGradient id="h" cx="0" cy="0" r="1" gradientTransform="matrix(11.49998 2 -2 11.49998 20.5 18)" gradientUnits="userSpaceOnUse"><stop stop-color="#FFA64B"/><stop offset=".9" stop-color="#FFAE46" stop-opacity="0"/></radialGradient><radialGradient id="i" cx="0" cy="0" r="1" gradientTransform="rotate(43.971 -9.827 29.173)scale(59.0529)" gradientUnits="userSpaceOnUse"><stop offset=".185" stop-opacity="0"/><stop offset="1" stop-opacity=".4"/></radialGradient><radialGradient id="n" cx="0" cy="0" r="1" gradientTransform="matrix(0 5.5 -8.41855 0 16 22)" gradientUnits="userSpaceOnUse"><stop offset=".348" stop-color="#241A1A"/><stop offset=".628" stop-color="#57444A"/><stop offset="1" stop-color="#4E2553"/><stop offset="1" stop-color="#502A56"/></radialGradient><linearGradient id="j" x1="11.2" x2="10.965" y1="16.75" y2="18.161" gradientUnits="userSpaceOnUse"><stop stop-color="#52383E"/><stop offset="1" stop-color="#432A35"/></linearGradient><linearGradient id="k" x1="23.2" x2="22.965" y1="16.75" y2="18.161" gradientUnits="userSpaceOnUse"><stop stop-color="#52383E"/><stop offset="1" stop-color="#432A35"/></linearGradient><linearGradient id="l" x1="6.833" x2="6.833" y1="11.4" y2="9.6" gradientUnits="userSpaceOnUse"><stop offset=".03" stop-color="#524049"/><stop offset="1" stop-color="#4A2C42"/></linearGradient><linearGradient id="m" x1="25.167" x2="25.167" y1="11.4" y2="9.6" gradientUnits="userSpaceOnUse"><stop offset=".03" stop-color="#524049"/><stop offset="1" stop-color="#4A2C42"/></linearGradient><clipPath id="a"><path fill="#fff" d="M0 0h32v32H0z"/></clipPath></defs></svg>
